!!!OTL: DIR FOLGEN MEINE TRAENEN
!!!ARE: Europa, Mitteleuropa, Deutschland, Rheinland
!!!SCT: B0483
!!!YEM: Copyright 1995, estate of Helmut Schaffrath.
**kern
*ICvox
*Ivox
*M6/8
*k[b-]
*F:
{8c
=1
4f
8f
4a
8cc
=2
4cc
8b-
4g}
{8c
=3
4f
8f
4g
8a
=4
4.f
4r}
{8cc
=5
4dd
8b-
8ff
8ee
8dd
=6
4cc
8a
4f}
{8a
=7
4g
8g
4cc
8e
=8
4.f
4r}
{8a
=9
4g
8g
4a-
8a-
=10
4a-
8g
4g}
{8g
=11
4a-
8a-
8a-
8g
8f
=12
[4.cc
4cc]}
{8c
=13
4f
8f
4a
8cc
=14
4cc
8b-
4g}
{8c
=15
4f
8f
4g
8a
=16
4.f
4r}
{8cc
=17
4dd
8b-
8ff
8ee
8dd
=18
4cc
8a
4f}
{8a
=19
4g
8g
4cc
8e
=20
4.f
4r}
==
!!!AGN: Liebes - Lied, Leid, Klage
!!!ONB: ESAC (Essen Associative Code) Database: BOEHME
!!!AMT: compound duple
!!!AIN: vox
!!!EED: Helmut Schaffrath
!!!EEV: 1.0
*-
